resources/icons/20px/spell-check.svg

<svg width="20" height="20" viewBox="0 0 20 20" fill="none" xmlns="http://www.w3.org/2000/svg">
<path d="M8.89 0.56L13.89 10.56C13.95 10.69 14 10.84 14 11C14 11.55 13.55 12 13 12C12.61 12 12.28 11.77 12.11 11.45L10.88 9H5.12L3.89 11.44C3.72 11.77 3.39 12 3 12C2.45 12 2 11.55 2 11C2 10.84 2.05 10.69 2.12 10.56L4.47 5.83L5.37 4.02L7.11 0.56C7.28 0.23 7.61 0 8 0C8.39 0 8.72 0.23 8.89 0.56ZM6.12 7H9.88L8 3.24L6.12 7ZM17.29 11.29C17.4783 11.1017 17.7337 10.9959 18 10.9959C18.2663 10.9959 18.5217 11.1017 18.71 11.29C18.8983 11.4783 19.0041 11.7337 19.0041 12C19.0041 12.2663 18.8983 12.5217 18.71 12.71L11.71 19.71C11.53 19.89 11.28 20 11 20C10.72 20 10.47 19.89 10.29 19.71L7.29 16.71C7.19676 16.6168 7.1228 16.5061 7.07234 16.3842C7.02188 16.2624 6.99591 16.1319 6.99591 16C6.99591 15.7337 7.1017 15.4783 7.29 15.29C7.4783 15.1017 7.7337 14.9959 8 14.9959C8.2663 14.9959 8.5217 15.1017 8.71 15.29L11 17.59L17.29 11.29Z" fill="black"/>
</svg>

<svg xmlns="http://www.w3.org/2000/svg" viewBox="0 0 20 20">
  <path d="m8.89.56 5 10c.06.13.11.28.11.44 0 .55-.45 1-1 1-.39 0-.72-.23-.89-.55L10.88 9H5.12l-1.23 2.44c-.17.33-.5.56-.89.56-.55 0-1-.45-1-1 0-.16.05-.31.12-.44l2.35-4.73.9-1.81L7.11.56C7.28.23 7.61 0 8 0s.72.23.89.56M6.12 7h3.76L8 3.24zm11.17 4.29a1.004 1.004 0 1 1 1.42 1.42l-7 7c-.18.18-.43.29-.71.29s-.53-.11-.71-.29l-3-3a1.003 1.003 0 1 1 1.42-1.42l2.29 2.3z"/>
</svg>
